X:1
T:Ej 59 más ejemplos
T:
I:linebreak !
L:1/4
K:Cmaj
V:1 clef=treble
eGAB | c4 | GFED | E4 |! Bgfe | d4  | GCDE |F4 | GcBA |B4 |
V:2 clef=treble
C4 | E4 | B,4 | C4 |! E4 | F4 | C4 | D4 | E4 | D4 |